X:1
T:Title
%%score { 1 | 2 }
L:1/8
M:4/4
K:C
V:1 treble nm="Grand Piano"
V:2 bass 
V:1
 z4 z2[Q:1/4=96] [EG]2 | [EG][EG][EG][EG] [FA][Ac][GB][FA] |[M:3/4] [EG][EG] [G,CE][G,DF] [G,EG]2 | %3
[M:1/4] [CEG][CEG] |[M:4/4] [CEG]2 [DF][CE] [B,D]2 [DF][DF] | [CE]2 [EG]4 [EG][EG] | %6
 [EG][EG][EG][EG] [FA][Ac][GB][FA] | [EG][EG][G,CE][G,DF] [G,EG]2 [CEG]2 | %8
 [CEG]2 [DF][CE] [B,D]2 [DF][DF] |[M:3/4] [CE]2 [EG]4 |[M:1/4] AB | %11
[M:4/4] [Ec]2 [Ec]2 [Ec]2 [FB][FA] | [EG]2 [FA]>[FB] [Ec]2 z2 | d2 d2 d2 cd | [Ge]6 [Ec][Fd] | %15
[M:3/4] [Ge][Ge] [Ge][Ge] [Ge]2 |[M:1/4] [Gd][CGc] | %17
[M:9/8] [CFA][CFA][CFA] [CGB] [CAc]2- [CAc] [CFA]2 |[M:4/4] [CG]2 [CEc]2 d2 c>B |[M:3/4] [Ec]6 |] %20
V:2
 z4 z2 [C,C]2 | [C,C][C,C][C,C][C,C] [C,C][C,C][C,C][C,C] |[M:3/4] [C,C][C,C] C,C, C,2 | %3
[M:1/4] C,C, |[M:4/4] G,,2 [G,,G,][G,,G,] [G,,G,]2 [G,,G,][G,,G,] | [C,G,]2 [C,C]4 [C,C][C,C] | %6
 [C,C][C,C][C,C][C,C] [C,C]2 [C,C][C,C] | [C,C][C,C]C,C, C,2 C,2 | %8
 G,,2 [G,,G,][G,,G,] [G,,G,]2 [G,,G,][G,,G,] |[M:3/4] [C,G,]2 [C,C]4 | %10
[M:1/4][K:treble] [G,F][G,F] |[M:4/4][K:bass] [C,G,]2 [C,G,]2 [C,G,]2 [C,G,][C,C] | %12
 [C,C]2 [C,C]>[C,G,] [C,G,]2 z2 | [G,B,G]2 [G,B,G]2 [G,B,G]2 [G,A,G][G,B,G] | [C,C]6 [C,G,][C,G,] | %15
[M:3/4] [C,C][C,C] [C,C][C,C] [C,C]2 |[M:1/4] [D,B,]E, |[M:9/8] F,F,F, F, F,2- F, F,2 | %18
[M:4/4] E,2 C,2 [F,A,F]2 [G,E]>[G,D] |[M:3/4] [C,G,]6 |] %20

